svg/u1f3a0.svg

<svg viewBox="0 0 128 128" xmlns="http://www.w3.org/2000/svg">
  <path d="M47.81,3.52c-0.07,1.44-1.35,120.61-1.2,121.22c0.15,0.61,8.91,0.44,8.91,0.09 c0-0.77,1.55-120.44,1.52-121.22C57.01,3.13,47.83,2.98,47.81,3.52z" fill="#FFD51D"/>
  <path d="M47.79,4.43c0,0,3.04,4.12,4.94,6.59c1.7,2.21,4.17,5.01,4.17,5.01l-0.08,6c0,0-3.84-4.3-5.78-6.61 c-2.1-2.49-3.32-4.47-3.32-4.47L47.79,4.43z" fill="#FDA726"/>
  <path d="M47.52,26.71c0,0,1.94,3.41,4.46,6.64c2.05,2.63,4.61,5,4.61,5l-0.13,11.86l-9.23-1.73L47.52,26.71z" fill="#FDA726"/>
  <path d="M46.92,84.88l-0.03,4.17c0,0,1.84,3.07,4.18,5.73c1.95,2.21,4.76,5.2,4.76,5.2l0.19-15.1l-3.78-1.85 L46.92,84.88z" fill="#FDA726"/>
  <path d="M46.73,105.38c0,0,2.95,3.85,5,6.15c1.63,1.83,3.91,4.23,3.91,4.23l-0.08,5.73 c0,0-3.83-3.87-5.56-5.73c-1.73-1.86-3.33-3.72-3.33-3.72L46.73,105.38z" fill="#FDA726"/>
  <path d="M8.85,99.37c0,0-1.5-2.24-0.58-5.11c0.97-3.04,3.17-4.16,4.2-6.59c1.42-3.36,1.09-6.08,3.75-8.6 c2.39-2.26,5.69-1.42,8.6-2.26s4.14-2.59,4.14-2.59l6.79,2.07c0,0-0.9,7.56-3.62,7.43s-12.09,1.62-12.28,2 c-0.19,0.39-8.53,13.51-8.53,13.51L8.85,99.37z" fill="#8A867E"/>
  <path d="M72,82.95c0.13,0.58,2.33,3.75,5.82,6.59c3.49,2.84,8.66,4.91,10.41,6.21 c1.75,1.29,3.04,1.87,5.17,4.72s2.84,4.59,4.4,6.79c1.55,2.2,3.17,3.75,4.59,4.85c1.47,1.13,4.46,2.91,4.98,2.84 c0.52-0.06,2.78-4.78,2.78-4.78s-6.83-7.78-8.36-10.42c-1.53-2.63-4.59-6.8-7.99-8.75c-1.7-0.98-12.81-14.83-12.81-14.83L72,82.95z" fill="#8A867E"/>
  <path d="M93.39,53.5c0,0,1.11-1.3,1.83-1.8c0.91-0.64,1.65-1.01,3.09-1.04c1.3-0.02,5.3,3.46,5.3,3.46 s9.46,17.53,9.49,17.5s6.15,6.98,6.04,6.84c-0.11-0.15,3.76,1.84,3.76,1.84s-0.66,4.36-8.38,4.13c-7.55-0.22-12.32-4.51-15-10.21 c-1.29-2.74-1.49-7.71-1.49-7.71L93.39,53.5z" fill="#7A57BD"/>
  <path d="M96.47,50.97c0,0,0.54,2.41,2.5,4.15c1.96,1.73,3.68,3.25,5.04,5.43s4.43,10.13,8.37,14.77 c3.94,4.64,5.43,4.94,6.96,5.5c1.29,0.47,2.54,0.42,3,0.24c0.71-0.26,1.38-1.64-1.86-4.63c-3.24-2.99-5.27-6.53-7.05-10.09 c-1.78-3.56-2.67-11.51-7.56-14.81C100.98,48.24,96.47,50.97,96.47,50.97z" fill="#A47FCC"/>
  <path d="M96.34,55.43c0,0,3.1,4.03,2.97,9.55s-2.82,9.43-2.82,12.7c0,3.27,0.71,5.52,3.91,6.48 c3.21,0.96,4.94,1.54,5.52,2.89s0.45,4.75,1.92,7.57s2.59,3.47,3.27,4.94c0.77,1.64,0.9,4.36,0.9,4.36s-1.6,7.76-3.46,4.49 c-1.86-3.27-8.28-16.55-10.07-18.09c-1.8-1.54-11.42-12.13-11.42-12.7S96.34,55.43,96.34,55.43z" fill="#ACA399"/>
  <path d="M14.21,100.7l3.64,0.51l0.17-2.63c0,0,1.19-2.46,2.37-4.07c1.19-1.61,2.29-3.39,4.57-3.73 c2.29-0.34,16.77,0,17.96-0.68c1.19-0.68,3.64-3.73,3.64-3.73s8.75,0.76,17.79-1.1c6.44-1.33,10.67-1.78,10.67-1.78l6.35-0.59 c0,0,6.69-2.96,6.52-3.56c-0.17-0.59-5.17-9.66-5.68-9.4c-0.51,0.25-38.71,3.81-39.3,4.49c-0.59,0.68-7.54,7.79-7.54,7.79 s-15.25,3.98-15.5,4.07c-0.25,0.08-6.61,13.3-6.61,13.3L14.21,100.7z" fill="#ACA399"/>
  <path d="M24.21,65.9c0,0-0.04-3.11,0.45-6.99c0.47-3.76,1.34-7.93,1.43-11.15c0.1-3.59-0.31-5.72-0.69-5.84 c-0.37-0.12-2.18,4.16-2.18,4.16s0.11,1.94-0.72,3.85c-0.98,2.25-2.54,1.45-2.54,1.45l-1.85-6.28l3.61-9.97l1.93-13.58l6.42,4.55 l4.3,17.14l-1.5,16.26l-4.31,8.1L24.21,65.9z" fill="#ACA399"/>
  <path d="M81.8,48.43l-4.21,10.12l4.71,21.61l-4.03,3.14c0,0,2.96,5.68,7.57,7.92 c4.62,2.24,8.73,1.88,10.1,1.8c1.37-0.07,2.29,0.52,3.1,1.66c3.84,5.35,3.61,10.2,4.68,12.19c1.87,3.46,4.19,3.75,4.19,3.75 s4.18-1.52,4.04-1.8c-0.14-0.29-1.95-3.54-1.95-3.54s-0.72-3.17-2.38-6.06c-1.66-2.89-2.6-4.33-3.03-7.36 c-0.43-3.03-0.58-4.47-3.82-5.19c-3.25-0.72-7.43-2.74-7.14-6.85c0.29-4.11,5.45-12.85,4.69-19.19c-0.65-5.41-5.34-10.53-12.7-11.69 C83.59,48.62,81.8,48.43,81.8,48.43z" fill="#F1EDEC"/>
  <path d="M112.1,102.33c-0.45,0.08-1.59,2.81-2.45,4.26c-0.68,1.14-2.45,3.75-2.31,4.11 c0.14,0.36,5.78,5.81,6.13,6.06c0.51,0.36,1.52,0,1.95-1.59s2.53-10.68,2.53-10.68S112.97,102.18,112.1,102.33z" fill="#5E6367"/>
  <path d="M86.49,52.54c-0.37,1.1,0.65,1.88,2.45,3.61c1.8,1.73,2.89,3.82,3.1,6.28 c0.22,2.45,0.63,4.27,1.95,4.33c1.59,0.07,3.35-3.61,0.65-9.09C91.76,51.82,86.71,51.89,86.49,52.54z" fill="#FFFFFF"/>
  <path d="M82.37,49.9L82.23,79.7c0,0-2.49,0.97-5.61,0c-3.12-0.97-4.16-2.91-4.16-2.91s-2.22,3.74-8.25,3.67 c-6.03-0.07-7.55-2.91-7.55-2.91s-1.05,2.34-5.47,2.91c-2.5,0.32-4.63,0.32-5.05-0.65c-0.42-0.97-7.41-22.65-7.41-22.65l23.68-6.15 L82.37,49.9z" fill="#B0E4FE"/>
  <path d="M49.32,57.87l-0.21,18.98c0,0,2.07,0.02,3.95-1.25c1.96-1.33,2.84-2.66,3.19-2.63 c0.48,0.04,2.98,3.89,7.76,4.02c5.34,0.14,7.69-4.43,8.11-4.43c0.55,0,1.72,1.98,2.91,2.63c2.15,1.18,3.74,0.62,3.74,0.62 l0.07-21.55L49.32,57.87z" fill="#34B6E2"/>
  <path d="M8.16,27.76c0,0-0.95-5.93,1.26-9.41s5.61-4.43,5.61-4.43l6.25-1.58c0,0,2.42-1.01,7.04-0.87 c4.56,0.14,8.47,2.48,10.59,3.72c2.45,1.42,4.74,4.51,3.95,5.85c-0.79,1.34-2.92,0.4-2.92,0.4s5.77,4.03,8.54,11.3 c2.3,6.05,2.61,12.17,2.61,12.17l7.43,11.62l22.45-11.07c0,0,1.51-0.09,2.45,0.63c1.34,1.03,1.59,2.67,1.59,2.67 s-1.45,0.4-3.02,2.63c-4.35,6.17-6.88,21.03-18.89,20C52.66,70.5,50.85,60.01,50.13,57.32c-0.71-2.69-10.06-11.26-10.06-11.26 L31.16,25.7l-9.41-8.62l-10.2,10.04L8.16,27.76z" fill="#7A57BD"/>
  <path d="M29.2,79.38c0,0-2.02,1.15-4.62,1.52c-2.6,0.36-5.34-0.07-7.43,2.16s-1.23,5.41-2.89,7.86 c-1.66,2.45-3.03,3.97-4.4,5.48s-1.66,3.25-1.59,4.69c0.07,1.44,1.3,3.97,1.3,3.97l6.93-0.51l-0.07-4.47c0,0-0.93-1.61,0.36-3.82 c0.83-1.42,3.1-5.19,3.82-6.13c0.72-0.94,1.2-2.04,2.89-2.31c1.83-0.3,16.45-0.43,17.82-1.08c1.37-0.65,4.33-3.82,4.55-6.2 c0.22-2.38,0.36-21.72,0.36-21.72l1.35-10.65c0,0-0.79-2.16-1.6-4.33c-2.74-7.36-6.1-15.06-12.46-22.38 c-6.25-7.19-12.54-6.43-12.54-6.43s-9.74-8.87-10.25-9.6S9.51,3.99,9.36,4.56s0.29,6.78,0.29,6.78l3.61,6.2c0,0-0.72,2.96-1.95,5.92 s-3.15,4.29-3.15,4.29L7.43,40.87c0,0-1.53,2.39-1.58,5.5C5.8,49.43,18,46.05,18.05,45.79s4.17-11.48,4.12-12.05 c-0.05-0.57,3.07-9.55,3.07-9.55s5.54,7.96,4.66,17.21c-0.3,3.2-0.83,6.59-1.28,9.32c-1.47,8.98-2.55,15.03-2.55,15.03l3.13,11.23 L29.2,79.38z" fill="#F1EDEC"/>
  <path d="M20.87,103.19c0,0.43-1.31,2.67-4.05,6.35s-3.72,4.88-4.75,3.42c-1.03-1.46-1.41-3.94-1.8-5.25 c-0.35-1.18-0.94-3.08-0.94-3.08l8.69-5.97C18.03,98.66,20.87,102.25,20.87,103.19z" fill="#5E6367"/>
  <path d="M14.35,34.05c-0.45,0.2-0.85,2.19,0.71,4.15c1.56,1.96,3.35,2.9,3.35,2.9l1.38-3.03 c0,0-1.91-1.2-2.99-2.19C15.69,34.85,14.75,33.87,14.35,34.05z" fill="#FFFFFF"/>
  <path d="M9.36,4.56c-0.28,0.13-1.95,2.29-0.8,6.66c0.68,2.59,5.54,7.39,5.54,7.39l2.9,2.03 c0,0-0.43-3.02-2.16-5.05s-3.76-4.31-4.31-6.22S10.29,4.13,9.36,4.56z" fill="#ACA399"/>
  <radialGradient id="SVGID_1_" cx="12.9192" cy="55.8138" gradientUnits="userSpaceOnUse" r="17.4902">
    <stop offset="0.6623" stop-color="#FFA8A6"/>
    <stop offset="0.9142" stop-color="#FFA8A6" stop-opacity="0"/>
  </radialGradient>
  <path d="M7.4,40.86c0,0-1.69,2.99-1.62,5.9c0.06,2.66,0.91,4.09,2.55,5.54 c1.63,1.44,4.45,2.49,6.21,1.78c0.24-0.1,0.34-1.78,0.91-3.03c0.44-0.95,1.97-2.48,1.97-2.48s0.74,1.6,0.86,2.4 c0.12,0.8,0.2,2.39,0.49,2.46c1.11,0.28,2.64-0.83,3.61-3.23c1.04-2.57,0.83-4.07,0.83-4.07l1.66-3.8c0,0-0.86-6.65-6.53-8.19 c-5.67-1.54-10.63,1.3-10.63,1.3L7.4,40.86z" fill="url(#SVGID_1_)"/>
  <path d="M9.78,43.14c-1.58-0.18-2.21,1.59-2.21,3.56c0,1.97,1.06,2.79,2.07,2.79s1.93-1.3,1.93-3.13 C11.56,44.54,11.03,43.29,9.78,43.14z" fill="#845B51"/>
  <path d="M10.86,29.95c0.18,0.45,0.72,1.17,1.49,1.44c0.77,0.27,1.67,0.14,1.67,0.14s0.23,1.94,1.62,1.99 c1.46,0.05,1.58-2.53,1.35-3.79c-0.23-1.26-0.99-2.12-0.99-2.12s-2.3-0.32-3.75,0.68C11.19,29.01,10.86,29.95,10.86,29.95z" fill="#464D50"/>
  <path d="M18.12,12.43c0,0,2.42,1.94,2.72,5.29c0.33,3.75,0.32,4.6,0.32,4.6l-8.81-5.54 c0,0-0.42,0.97-0.44,2.05c-0.02,1.17,0.15,2.38,0.15,2.38l9.15,5.62c0,0-0.35,5.01-1.83,10.25c-1.31,4.62-3.11,8.06-3.41,8.7 s-1.35,3.38,1.14,4c2.18,0.54,2.62-2.57,3.26-3.96s2.19-5.3,3.11-8.75c2.52-9.44,2.03-15.08,1.48-18.98 c-0.58-4.17-1.86-4.97-3.39-5.62C20.47,12.02,18.85,11.72,18.12,12.43z" fill="#34B6E2"/>
  <path d="M24.12,63.99c0,0-0.23,2.8,0.38,6.98c0.49,3.31,3.05,8.74,4.74,8.33c0.41-0.1-0.65-5.27,0.98-7.33 c1.11-1.41,3.13-1.66,8.32-4.6c4.34-2.46,8.19-7.27,8.19-7.27L45.92,53l-5.47,1.34c0,0-4,3.87-8.69,6.4 C27.59,63,24.12,63.99,24.12,63.99z" fill="#D853C9"/>
  <path d="M43.64,52.69c-0.03,0.01-1.95-0.77-3.19,1.31c-1.53,2.57-1.54,7.22-1.69,7.57 c-0.15,0.35-1.08,1.46-0.15,1.65c0.92,0.19,4.5-0.12,6.8-1.77c2.31-1.65,2.73-3.92,2.73-3.92L43.64,52.69z" fill="#34B6E2"/>
  <path d="M82.06,45.58c0,0-1.39-0.07-4.47,3.85c-4.18,5.31-6.32,16.23-13.78,16.23s-8.65-6.5-10.62-11.52 s-5.61-7.76-5.61-7.76s-1.91-1.19-0.89-2.74c0.78-1.19,3.32-0.12,4.75,0.54s4.01,2.33,5.63,2.97c4.47,1.77,8.6,0.67,10.93,0.14 c2.33-0.54,4.49-1.54,8-1.91C79.92,44.95,82.06,45.58,82.06,45.58z" fill="#A47FCC"/>
  <path d="M45.36,47.99c-1.95,1.35-4.05,4.44-1.61,8.39c2.23,3.6,6.97,2.45,8.33,1.09 c1.71-1.71,2.39-5.02,0.61-7.88S47.18,46.72,45.36,47.99z" fill="#FFA6A3"/>
  <path d="M47.56,50.58c-1.03,0.26-2.01,1.73-1.49,3.31c0.45,1.39,2.08,1.96,3.12,1.46 c1.1-0.53,1.8-2.01,1.18-3.33C49.86,50.91,48.75,50.28,47.56,50.58z" fill="#F182A7"/>
</svg>

<svg viewBox="0 0 128 128" xmlns="http://www.w3.org/2000/svg">
  <defs>
    <radialGradient id="SVGID_1_" cx="12.9192" cy="55.8138" gradientUnits="userSpaceOnUse" r="17.4902">
      <stop offset="0.6623" stop-color="#FFA8A6"/>
      <stop offset="0.9142" stop-color="#FFA8A6" stop-opacity="0"/>
    </radialGradient>
  </defs>
  <path d="M47.81,3.52 C47.74,4.96 46.46,124.13 46.61,124.74 C46.76,125.35 55.52,125.18 55.52,124.83 C55.52,124.06 57.07,4.39 57.04,3.61 C57.01,3.13 47.83,2.98 47.81,3.52 Z" fill="#FFD51D"/>
  <path d="M47.79,4.43 C47.79,4.43 50.83,8.55 52.73,11.02 C54.43,13.23 56.9,16.03 56.9,16.03 L56.82,22.03 C56.82,22.03 52.98,17.73 51.04,15.42 C48.94,12.93 47.72,10.95 47.72,10.95 L47.79,4.43 Z" fill="#FDA726"/>
  <path d="M47.52,26.71 C47.52,26.71 49.46,30.12 51.98,33.35 C54.03,35.98 56.59,38.35 56.59,38.35 L56.46,50.21 L47.23,48.48 L47.52,26.71 Z" fill="#FDA726"/>
  <path d="M46.92,84.88 L46.89,89.05 C46.89,89.05 48.73,92.12 51.07,94.78 C53.02,96.99 55.83,99.98 55.83,99.98 L56.02,84.88 L52.24,83.03 L46.92,84.88 Z" fill="#FDA726"/>
  <path d="M46.73,105.38 C46.73,105.38 49.68,109.23 51.73,111.53 C53.36,113.36 55.64,115.76 55.64,115.76 L55.56,121.49 C55.56,121.49 51.73,117.62 50,115.76 C48.27,113.9 46.67,112.04 46.67,112.04 L46.73,105.38 Z" fill="#FDA726"/>
  <path d="M8.85,99.37 C8.85,99.37 7.35,97.13 8.27,94.26 C9.24,91.22 11.44,90.1 12.47,87.67 C13.89,84.31 13.56,81.59 16.22,79.07 C18.61,76.81 21.91,77.65 24.82,76.81 C27.73,75.97 28.96,74.22 28.96,74.22 L35.75,76.29 C35.75,76.29 34.85,83.85 32.13,83.72 C29.41,83.59 20.04,85.34 19.85,85.72 C19.66,86.11 11.32,99.23 11.32,99.23 L8.85,99.37 Z" fill="#8A867E"/>
  <path d="M72,82.95 C72.13,83.53 74.33,86.7 77.82,89.54 C81.31,92.38 86.48,94.45 88.23,95.75 C89.98,97.04 91.27,97.62 93.4,100.47 C95.53,103.32 96.24,105.06 97.8,107.26 C99.35,109.46 100.97,111.01 102.39,112.11 C103.86,113.24 106.85,115.02 107.37,114.95 C107.89,114.89 110.15,110.17 110.15,110.17 C110.15,110.17 103.32,102.39 101.79,99.75 C100.26,97.12 97.2,92.95 93.8,91 C92.1,90.02 80.99,76.17 80.99,76.17 L72,82.95 Z" fill="#8A867E"/>
  <path d="M93.39,53.5 C93.39,53.5 94.5,52.2 95.22,51.7 C96.13,51.06 96.87,50.69 98.31,50.66 C99.61,50.64 103.61,54.12 103.61,54.12 C103.61,54.12 113.07,71.65 113.1,71.62 C113.13,71.59 119.25,78.6 119.14,78.46 C119.03,78.31 122.9,80.3 122.9,80.3 C122.9,80.3 122.24,84.66 114.52,84.43 C106.97,84.21 102.2,79.92 99.52,74.22 C98.23,71.48 98.03,66.51 98.03,66.51 L93.39,53.5 Z" fill="#7A57BD"/>
  <path d="M96.47,50.97 C96.47,50.97 97.01,53.38 98.97,55.12 C100.93,56.85 102.65,58.37 104.01,60.55 C105.37,62.73 108.44,70.68 112.38,75.32 C116.32,79.96 117.81,80.26 119.34,80.82 C120.63,81.29 121.88,81.24 122.34,81.06 C123.05,80.8 123.72,79.42 120.48,76.43 C117.24,73.44 115.21,69.9 113.43,66.34 C111.65,62.78 110.76,54.83 105.87,51.53 C100.98,48.24 96.47,50.97 96.47,50.97 Z" fill="#A47FCC"/>
  <path d="M96.34,55.43 C96.34,55.43 99.44,59.46 99.31,64.98 C99.18,70.5 96.49,74.41 96.49,77.68 C96.49,80.95 97.2,83.2 100.4,84.16 C103.61,85.12 105.34,85.7 105.92,87.05 C106.5,88.4 106.37,91.8 107.84,94.62 C109.31,97.44 110.43,98.09 111.11,99.56 C111.88,101.2 112.01,103.92 112.01,103.92 C112.01,103.92 110.41,111.68 108.55,108.41 C106.69,105.14 100.27,91.86 98.48,90.32 C96.68,88.78 87.06,78.19 87.06,77.62 C87.06,77.05 96.34,55.43 96.34,55.43 Z" fill="#ACA399"/>
  <path d="M14.21,100.7 L17.85,101.21 L18.02,98.58 C18.02,98.58 19.21,96.12 20.39,94.51 C21.58,92.9 22.68,91.12 24.96,90.78 C27.25,90.44 41.73,90.78 42.92,90.1 C44.11,89.42 46.56,86.37 46.56,86.37 C46.56,86.37 55.31,87.13 64.35,85.27 C70.79,83.94 75.02,83.49 75.02,83.49 L81.37,82.9 C81.37,82.9 88.06,79.94 87.89,79.34 C87.72,78.75 82.72,69.68 82.21,69.94 C81.7,70.19 43.5,73.75 42.91,74.43 C42.32,75.11 35.37,82.22 35.37,82.22 C35.37,82.22 20.12,86.2 19.87,86.29 C19.62,86.37 13.26,99.59 13.26,99.59 L14.21,100.7 Z" fill="#ACA399"/>
  <path d="M24.21,65.9 C24.21,65.9 24.17,62.79 24.66,58.91 C25.13,55.15 26,50.98 26.09,47.76 C26.19,44.17 25.78,42.04 25.4,41.92 C25.03,41.8 23.22,46.08 23.22,46.08 C23.22,46.08 23.33,48.02 22.5,49.93 C21.52,52.18 19.96,51.38 19.96,51.38 L18.11,45.1 L21.72,35.13 L23.65,21.55 L30.07,26.1 L34.37,43.24 L32.87,59.5 L28.56,67.6 L24.21,65.9 Z" fill="#ACA399"/>
  <path d="M81.8,48.43 L77.59,58.55 L82.3,80.16 L78.27,83.3 C78.27,83.3 81.23,88.98 85.84,91.22 C90.46,93.46 94.57,93.1 95.94,93.02 C97.31,92.95 98.23,93.54 99.04,94.68 C102.88,100.03 102.65,104.88 103.72,106.87 C105.59,110.33 107.91,110.62 107.91,110.62 C107.91,110.62 112.09,109.1 111.95,108.82 C111.81,108.53 110,105.28 110,105.28 C110,105.28 109.28,102.11 107.62,99.22 C105.96,96.33 105.02,94.89 104.59,91.86 C104.16,88.83 104.01,87.39 100.77,86.67 C97.52,85.95 93.34,83.93 93.63,79.82 C93.92,75.71 99.08,66.97 98.32,60.63 C97.67,55.22 92.98,50.1 85.62,48.94 C83.59,48.62 81.8,48.43 81.8,48.43 Z" fill="#F1EDEC"/>
  <path d="M112.1,102.33 C111.65,102.41 110.51,105.14 109.65,106.59 C108.97,107.73 107.2,110.34 107.34,110.7 C107.48,111.06 113.12,116.51 113.47,116.76 C113.98,117.12 114.99,116.76 115.42,115.17 C115.85,113.58 117.95,104.49 117.95,104.49 C117.95,104.49 112.97,102.18 112.1,102.33 Z" fill="#5E6367"/>
  <path d="M86.49,52.54 C86.12,53.64 87.14,54.42 88.94,56.15 C90.74,57.88 91.83,59.97 92.04,62.43 C92.26,64.88 92.67,66.7 93.99,66.76 C95.58,66.83 97.34,63.15 94.64,57.67 C91.76,51.82 86.71,51.89 86.49,52.54 Z" fill="#FFFFFF"/>
  <path d="M82.37,49.9 L82.23,79.7 C82.23,79.7 79.74,80.67 76.62,79.7 C73.5,78.73 72.46,76.79 72.46,76.79 C72.46,76.79 70.24,80.53 64.21,80.46 C58.18,80.39 56.66,77.55 56.66,77.55 C56.66,77.55 55.61,79.89 51.19,80.46 C48.69,80.78 46.56,80.78 46.14,79.81 C45.72,78.84 38.73,57.16 38.73,57.16 L62.41,51.01 L82.37,49.9 Z" fill="#B0E4FE"/>
  <path d="M49.32,57.87 L49.11,76.85 C49.11,76.85 51.18,76.87 53.06,75.6 C55.02,74.27 55.9,72.94 56.25,72.97 C56.73,73.01 59.23,76.86 64.01,76.99 C69.35,77.13 71.7,72.56 72.12,72.56 C72.67,72.56 73.84,74.54 75.03,75.19 C77.18,76.37 78.77,75.81 78.77,75.81 L78.84,54.26 L49.32,57.87 Z" fill="#34B6E2"/>
  <path d="M8.16,27.76 C8.16,27.76 7.21,21.83 9.42,18.35 C11.63,14.87 15.03,13.92 15.03,13.92 L21.28,12.34 C21.28,12.34 23.7,11.33 28.32,11.47 C32.88,11.61 36.79,13.95 38.91,15.19 C41.36,16.61 43.65,19.7 42.86,21.04 C42.07,22.38 39.94,21.44 39.94,21.44 C39.94,21.44 45.71,25.47 48.48,32.74 C50.78,38.79 51.09,44.91 51.09,44.91 L58.52,56.53 L80.97,45.46 C80.97,45.46 82.48,45.37 83.42,46.09 C84.76,47.12 85.01,48.76 85.01,48.76 C85.01,48.76 83.56,49.16 81.99,51.39 C77.64,57.56 75.11,72.42 63.1,71.39 C52.66,70.5 50.85,60.01 50.13,57.32 C49.42,54.63 40.07,46.06 40.07,46.06 L31.16,25.7 L21.75,17.08 L11.55,27.12 L8.16,27.76 Z" fill="#7A57BD"/>
  <path d="M29.2,79.38 C29.2,79.38 27.18,80.53 24.58,80.9 C21.98,81.26 19.24,80.83 17.15,83.06 C15.06,85.29 15.92,88.47 14.26,90.92 C12.6,93.37 11.23,94.89 9.86,96.4 C8.49,97.91 8.2,99.65 8.27,101.09 C8.34,102.53 9.57,105.06 9.57,105.06 L16.5,104.55 L16.43,100.08 C16.43,100.08 15.5,98.47 16.79,96.26 C17.62,94.84 19.89,91.07 20.61,90.13 C21.33,89.19 21.81,88.09 23.5,87.82 C25.33,87.52 39.95,87.39 41.32,86.74 C42.69,86.09 45.65,82.92 45.87,80.54 C46.09,78.16 46.23,58.82 46.23,58.82 L47.58,48.17 C47.58,48.17 46.79,46.01 45.98,43.84 C43.24,36.48 39.88,28.78 33.52,21.46 C27.27,14.27 20.98,15.03 20.98,15.03 C20.98,15.03 11.24,6.16 10.73,5.43 C10.22,4.7 9.51,3.99 9.36,4.56 C9.21,5.13 9.65,11.34 9.65,11.34 L13.26,17.54 C13.26,17.54 12.54,20.5 11.31,23.46 C10.08,26.42 8.16,27.75 8.16,27.75 L7.43,40.87 C7.43,40.87 5.9,43.26 5.85,46.37 C5.8,49.43 18,46.05 18.05,45.79 C18.1,45.53 22.22,34.31 22.17,33.74 C22.12,33.17 25.24,24.19 25.24,24.19 C25.24,24.19 30.78,32.15 29.9,41.4 C29.6,44.6 29.07,47.99 28.62,50.72 C27.15,59.7 26.07,65.75 26.07,65.75 L29.2,76.98 L29.2,79.38 Z" fill="#F1EDEC"/>
  <path d="M20.87,103.19 C20.87,103.62 19.56,105.86 16.82,109.54 C14.08,113.22 13.1,114.42 12.07,112.96 C11.04,111.5 10.66,109.02 10.27,107.71 C9.92,106.53 9.33,104.63 9.33,104.63 L18.02,98.66 C18.03,98.66 20.87,102.25 20.87,103.19 Z" fill="#5E6367"/>
  <path d="M14.35,34.05 C13.9,34.25 13.5,36.24 15.06,38.2 C16.62,40.16 18.41,41.1 18.41,41.1 L19.79,38.07 C19.79,38.07 17.88,36.87 16.8,35.88 C15.69,34.85 14.75,33.87 14.35,34.05 Z" fill="#FFFFFF"/>
  <path d="M9.36,4.56 C9.08,4.69 7.41,6.85 8.56,11.22 C9.24,13.81 14.1,18.61 14.1,18.61 L17,20.64 C17,20.64 16.57,17.62 14.84,15.59 C13.11,13.56 11.08,11.28 10.53,9.37 C9.98,7.46 10.29,4.13 9.36,4.56 Z" fill="#ACA399"/>
  <path d="M7.4,40.86 C7.4,40.86 5.71,43.85 5.78,46.76 C5.84,49.42 6.69,50.85 8.33,52.3 C9.96,53.74 12.78,54.79 14.54,54.08 C14.78,53.98 14.88,52.3 15.45,51.05 C15.89,50.1 17.42,48.57 17.42,48.57 C17.42,48.57 18.16,50.17 18.28,50.97 C18.4,51.77 18.48,53.36 18.77,53.43 C19.88,53.71 21.41,52.6 22.38,50.2 C23.42,47.63 23.21,46.13 23.21,46.13 L24.87,42.33 C24.87,42.33 24.01,35.68 18.34,34.14 C12.67,32.6 7.71,35.44 7.71,35.44 L7.4,40.86 Z" fill="url(#SVGID_1_)"/>
  <path d="M9.78,43.14 C8.2,42.96 7.57,44.73 7.57,46.7 C7.57,48.67 8.63,49.49 9.64,49.49 C10.65,49.49 11.57,48.19 11.57,46.36 C11.56,44.54 11.03,43.29 9.78,43.14 Z" fill="#845B51"/>
  <path d="M10.86,29.95 C11.04,30.4 11.58,31.12 12.35,31.39 C13.12,31.66 14.02,31.53 14.02,31.53 C14.02,31.53 14.25,33.47 15.64,33.52 C17.1,33.57 17.22,30.99 16.99,29.73 C16.76,28.47 16,27.61 16,27.61 C16,27.61 13.7,27.29 12.25,28.29 C11.19,29.01 10.86,29.95 10.86,29.95 Z" fill="#464D50"/>
  <path d="M18.12,12.43 C18.12,12.43 20.54,14.37 20.84,17.72 C21.17,21.47 21.16,22.32 21.16,22.32 L12.35,16.78 C12.35,16.78 11.93,17.75 11.91,18.83 C11.89,20 12.06,21.21 12.06,21.21 L21.21,26.83 C21.21,26.83 20.86,31.84 19.38,37.08 C18.07,41.7 16.27,45.14 15.97,45.78 C15.67,46.42 14.62,49.16 17.11,49.78 C19.29,50.32 19.73,47.21 20.37,45.82 C21.01,44.43 22.56,40.52 23.48,37.07 C26,27.63 25.51,21.99 24.96,18.09 C24.38,13.92 23.1,13.12 21.57,12.47 C20.47,12.02 18.85,11.72 18.12,12.43 Z" fill="#34B6E2"/>
  <path d="M24.12,63.99 C24.12,63.99 23.89,66.79 24.5,70.97 C24.99,74.28 27.55,79.71 29.24,79.3 C29.65,79.2 28.59,74.03 30.22,71.97 C31.33,70.56 33.35,70.31 38.54,67.37 C42.88,64.91 46.73,60.1 46.73,60.1 L45.92,53 L40.45,54.34 C40.45,54.34 36.45,58.21 31.76,60.74 C27.59,63 24.12,63.99 24.12,63.99 Z" fill="#D853C9"/>
  <path d="M43.64,52.69 C43.61,52.7 41.69,51.92 40.45,54 C38.92,56.57 38.91,61.22 38.76,61.57 C38.61,61.92 37.68,63.03 38.61,63.22 C39.53,63.41 43.11,63.1 45.41,61.45 C47.72,59.8 48.14,57.53 48.14,57.53 L43.64,52.69 Z" fill="#34B6E2"/>
  <path d="M82.06,45.58 C82.06,45.58 80.67,45.51 77.59,49.43 C73.41,54.74 71.27,65.66 63.81,65.66 C56.35,65.66 55.16,59.16 53.19,54.14 C51.22,49.12 47.58,46.38 47.58,46.38 C47.58,46.38 45.67,45.19 46.69,43.64 C47.47,42.45 50.01,43.52 51.44,44.18 C52.87,44.84 55.45,46.51 57.07,47.15 C61.54,48.92 65.67,47.82 68,47.29 C70.33,46.75 72.49,45.75 76,45.38 C79.92,44.95 82.06,45.58 82.06,45.58 Z" fill="#A47FCC"/>
  <path d="M45.36,47.99 C43.41,49.34 41.31,52.43 43.75,56.38 C45.98,59.98 50.72,58.83 52.08,57.47 C53.79,55.76 54.47,52.45 52.69,49.59 C50.91,46.73 47.18,46.72 45.36,47.99 Z" fill="#FFA6A3"/>
  <path d="M47.56,50.58 C46.53,50.84 45.55,52.31 46.07,53.89 C46.52,55.28 48.15,55.85 49.19,55.35 C50.29,54.82 50.99,53.34 50.37,52.02 C49.86,50.91 48.75,50.28 47.56,50.58 Z" fill="#F182A7"/>
</svg>
